svg/arrow_expand_vertical.svg

<svg xmlns="http://www.w3.org/2000/svg" viewBox="0 0 24 24"><path d="M13 9v6h3l-4 4-4-4h3V9H8l4-4 4 4zM4 2h16v2H4zm0 18h16v2H4z"/></svg>

<?xml version="1.0" encoding="UTF-8"?><!DOCTYPE svg PUBLIC "-//W3C//DTD SVG 1.1//EN" "http://www.w3.org/Graphics/SVG/1.1/DTD/svg11.dtd"><svg xmlns="http://www.w3.org/2000/svg" xmlns:xlink="http://www.w3.org/1999/xlink" version="1.1" id="mdi-arrow-expand-vertical" width="24" height="24" viewBox="0 0 24 24"><path d="M13,9V15H16L12,19L8,15H11V9H8L12,5L16,9H13M4,2H20V4H4V2M4,20H20V22H4V20Z" /></svg>
